img/rating.svg

<svg width="20" height="20" viewBox="0 0 20 20" fill="none" xmlns="http://www.w3.org/2000/svg">
<path fill-rule="evenodd" clip-rule="evenodd" d="M6.69762 16.9176C6.35346 16.9176 6.01179 16.8093 5.71929 16.596C5.21429 16.226 4.96679 15.6151 5.07429 15.0001L5.65429 11.6585C5.67596 11.5343 5.63346 11.4085 5.54179 11.3201L3.07846 8.95348C2.62513 8.51931 2.46263 7.87764 2.65429 7.28181C2.84763 6.67931 3.35929 6.24848 3.99013 6.15848L7.39679 5.66764C7.52846 5.64931 7.64179 5.56848 7.69846 5.45348L9.22096 2.41014C9.50179 1.84931 10.0685 1.50098 10.7001 1.50098C11.3318 1.50098 11.8985 1.84931 12.1793 2.41014L13.7026 5.45264C13.7601 5.56848 13.8726 5.64931 14.0035 5.66764L17.4101 6.15848C18.041 6.24848 18.5526 6.67931 18.746 7.28181C18.9376 7.87764 18.7743 8.51931 18.321 8.95348L15.8576 11.3201C15.766 11.4085 15.7243 11.5343 15.746 11.6576L16.3268 15.0001C16.4335 15.616 16.186 16.2268 15.6801 16.596C15.1676 16.9718 14.5001 17.0226 13.9343 16.7276L10.8901 15.1501C10.771 15.0885 10.6285 15.0885 10.5093 15.1501L7.46512 16.7285C7.22179 16.8551 6.95929 16.9176 6.69762 16.9176Z" fill="#FC6733"/>
</svg>

<svg width="20" height="20" viewBox="0 0 20 20" fill="none" xmlns="http://www.w3.org/2000/svg"><path fill-rule="evenodd" clip-rule="evenodd" d="M6.698 16.918a1.66 1.66 0 0 1-.979-.322A1.62 1.62 0 0 1 5.074 15l.58-3.341a.379.379 0 0 0-.112-.339L3.078 8.953a1.616 1.616 0 0 1-.424-1.671A1.633 1.633 0 0 1 3.99 6.158l3.407-.49a.396.396 0 0 0 .301-.215L9.221 2.41c.28-.56.848-.909 1.48-.909.63 0 1.197.348 1.478.91l1.524 3.042a.4.4 0 0 0 .3.215l3.407.49a1.633 1.633 0 0 1 .911 2.795l-2.463 2.367a.378.378 0 0 0-.112.338l.58 3.342a1.62 1.62 0 0 1-.646 1.596 1.645 1.645 0 0 1-1.746.132L10.89 15.15a.415.415 0 0 0-.38 0l-3.046 1.58a1.66 1.66 0 0 1-.767.189z" fill="#FC6733"/></svg>
